dist/assets/icons/icon/stage-3.svg

<svg width="164" height="165" viewBox="0 0 164 165" fill="none" xmlns="http://www.w3.org/2000/svg">
<path d="M110.719 138.75L45.8771 134.216L48.1442 101.795L71.2695 81.6926L51.167 58.5673L53.4341 26.1465L118.276 30.6807L116.009 63.1015L92.8834 83.204L112.986 106.329M62.1629 56.6213L82.2654 79.7466L105.391 59.6441L106.713 40.7319L63.4853 37.7091M81.8875 85.15L58.7622 105.253L57.4398 124.165L100.668 127.187L101.99 108.275M90.6163 115.625L69.0024 114.113L69.3047 109.791L80.8673 99.7394L90.9186 111.302L90.6163 115.625Z" fill="#F2DDFD"/>
</svg>

<svg width="164" height="165" viewBox="0 0 164 165" fill="none" xmlns="http://www.w3.org/2000/svg"><path d="m110.719 138.75-64.842-4.534 2.267-32.421L71.27 81.693 51.167 58.567l2.267-32.42 64.842 4.534-2.267 32.42-23.126 20.103 20.103 23.125M62.163 56.621l20.102 23.126 23.126-20.103 1.322-18.912-43.228-3.023M81.888 85.15l-23.126 20.103-1.322 18.912 43.228 3.022 1.322-18.912m-11.374 7.35-21.614-1.512.303-4.322 11.562-10.052 10.052 11.563-.303 4.323Z" fill="#F2DDFD"/></svg>
